symbols/web/home_repair_service/materialsymbolsoutlined/home_repair_service_wght700grad200fill1_40px.svg

<svg xmlns="http://www.w3.org/2000/svg" height="40" width="40"><path d="M2 34.667v-9.125h7.458v1.666h4.417v-1.666h12.25v1.666h4.417v-1.666h7.5v9.125Zm0-18.25q0-1.834 1.292-3.146 1.291-1.313 3.125-1.313h3.916v-2.75q0-1.833 1.292-3.125 1.292-1.291 3.125-1.291h10.5q1.833 0 3.146 1.291 1.312 1.292 1.312 3.125v2.75h3.875q1.834 0 3.146 1.313 1.313 1.312 1.313 3.146v6.916h-7.5v-3.875h-4.417v3.875h-12.25v-3.875H9.458v3.875H2Zm12.75-4.459h10.5V9.167h-10.5Z"/></svg>

<svg xmlns="http://www.w3.org/2000/svg" height="40" width="40"><path d="M2 34.667V25.542H9.458V27.208H13.875V25.542H26.125V27.208H30.542V25.542H38.042V34.667ZM2 16.417Q2 14.583 3.292 13.271Q4.583 11.958 6.417 11.958H10.333V9.208Q10.333 7.375 11.625 6.083Q12.917 4.792 14.75 4.792H25.25Q27.083 4.792 28.396 6.083Q29.708 7.375 29.708 9.208V11.958H33.583Q35.417 11.958 36.729 13.271Q38.042 14.583 38.042 16.417V23.333H30.542V19.458H26.125V23.333H13.875V19.458H9.458V23.333H2ZM14.75 11.958H25.25V9.167Q25.25 9.167 25.25 9.167Q25.25 9.167 25.25 9.167H14.75Q14.75 9.167 14.75 9.167Q14.75 9.167 14.75 9.167Z"/></svg>
